!!!!SEGMENT: pl-wtm--a-22-715_krupinski-wiktor--czy-ty-pamietasz-malenka-kawiarenke-rozwiala-sie-milosc-nasza.krn
!!!cenid: 19xx:41
!!!COM: Krupiński, Wiktor
!!!COM-rismID: pe50047127
!!!CDT: 1879-1951
!!!CNT: Polish
!!!OTL: Czy ty pamiętasz maleńką kawiarenkę?/Rozwiała się miłość nasza
!!!PDT:
!!!AGN: Secular
!!!YEC: Copyright 2022 Narodowy Instytut Fryderyka Chopina (https://polishscores.org)
!!!YEM: License CC-BY-4.0 (https://creativecommons.org/licenses/by/4.0)
!!!SMS-siglum: PL-Wtm
!!!SMS-shelfmark: A.22.715
!!!SMS-variant:
!!!SMS-altvar:
!!!SMS-shelfwork: W
!!!NIFC-rismSourceID: 1001219959
!!!NIFC-rismChildID: 1001219959
!!!NIFC-islandoraID: pl-wtm:94940
!!!URL-pdf-islandora: https://repozytorium.nifc.pl/islandora/object/pl-wtm%3A94940/datastream/PDF/view
!!!URL-scan: https://polish.musicsources.pl/pl/lokalizacje/galeria/druki-muzyczne/19757/2 @EN{Scan on Polish Music Sources Website} @PL{Skany w portalu Dziedzictwo Muzyki Polskiej w otwartym dostępie}
!!!IIIF:
!!!ONB-nifc:
!!!AIN: 2 piano 1 vox
!!!key: G
**kern	**kern	**dynam	**kern	**text
*part3	*part2	*part2	*part1	*part1
*staff3	*staff2	*	*staff1	*staff1
*I"[Piano]	*I"[Piano]	*	*I"[Voce]	*
*I'[pf]	*I'[pf]	*	*I'[V]	*
*ICklav	*ICklav	*	*ICvox	*
*Ipiano	*Ipiano	*	*Ivox	*
*>[A,A1,A,A2]	*>[A,A1,A,A2]	*>[A,A1,A,A2]	*>[A,A1,A,A2]	*>[A,A1,A,A2]
*>A	*>A	*>A	*>A	*>A
*clefF4	*clefG2	*	*clefG2	*
*k[f#]	*k[f#]	*	*k[f#]	*
*G:	*G:	*	*G:	*
*M2/4	*M2/4	*	*M2/4	*
16r	16d/LL	f	8.ryy	.
8r	16d/	.	.	.
.	16e/JJ	.	.	.
=1	=1	=1	=1	=1
8GG#X/L	8e/L	.	2ryy	.
8E/J 8G#X 8d	16e/L	.	.	.
.	16e/JJ	.	.	.
8G#/L 8d 8e	16g#X/LL 16ee	.	.	.
.	16g#/ 16ee	.	.	.
8EE/J	16fn/ 16dd	.	.	.
.	16g#/JJ 16ee	.	.	.
=2	=2	=2	=2	=2
8AA/L	8e/L 8a 8dd	.	2ryy	.
8E/J 8A 8c	[8e/J [8a [8cc	.	.	.
8E/L 8A 8c	16e/LL] 16a] 16cc]	.	.	.
.	16e/	.	.	.
8AA/J	16e/	.	.	.
.	16e/JJ	.	.	.
=3	=3	=3	=3	=3
8DD/L	8f#/L	.	2ryy	.
8D/J 8F# 8c	[8f#/J	.	.	.
8D/L 8F# 8c	16f#/LL]	.	.	.
.	16d/	.	.	.
8DD/J	16d/	.	.	.
.	16c/JJ 16f# 16b	.	.	.
=4	=4	=4	=4	=4
8GG/ 8G	8B/ 8d 8g	.	2ryy	.
(>8DD^>/L 8D	(>8f#^>/L 8cc 8dd	f >	.	.
16GGG'>/Jk) 16GG	16g'>/Jk) 16b 16dd 16gg	] p	.	.
16r	16r	.	.	.
8r	8r	.	.	.
*kcancel	*kcancel	*	*kcancel	*
!!LO:LB:g=original	!	!	!	!
=5||	=5||	=5||	=5||	=5||
*k[b-e-]	*k[b-e-]	*	*k[b-e-]	*
8GG/L	8b-/L	p	8b-\	Roz-
8D/J 8G 8B-	16g/L	.	16g/	-wia-
.	16a/JJ	.	16a/	-ła
8G/L 8B- 8d	16b-\KL	.	16b-\	się
.	8cc\	.	8cc\	mi-
8GG/J	.	.	.	.
.	16cc#X\Jk	.	16cc#X\	-łość
=6	=6	=6	=6	=6
8FF#X/L	4dd\	.	4dd\	na-
8D/J 8F#X 8c	.	.	.	.
8F#/L 8c 8d	4a/	.	4a/	-sza
8DD/J	.	.	.	.
=7	=7	=7	=7	=7
8GG/L	8b-/L	.	8b-/	Po-
8D/J 8G 8B-	16a/L	.	16a/	-bla-
.	16g/JJ	.	16g/	-dły
8G/L 8B- 8d	16g/KL	.	16g/	ma-
.	8f#X/	.	8f#X/	-rze-
8GG/J	.	.	.	.
.	16g/Jk	.	16g/	-nia
=8	=8	=8	=8	=8
8CC/L 8C	2e-/	.	2e-/	snów
8E-/J 8G 8A	.	.	.	.
8G\L 8A 8c	.	.	.	.
8E-\J 8G 8A	.	.	.	.
=9	=9	=9	=9	=9
8DD/L 8D	8e-/L	.	8e-/	Nie
8D/J 8F#X 8c	16d/L	.	16d/	tłó-
.	16f#X/JJ	.	16f#X/	-macz
8F#/L 8c 8d	16g/KL	.	16g/	i
.	8a/	.	8a/	nie
8DD/J	.	.	.	.
.	16cc/Jk	.	16cc\	prze-
!!LO:LB:g=original	!	!	!	!
=10	=10	=10	=10	=10
8GG/L	4b-\	.	4b-\	-pra-
8D/J 8G 8B-	.	.	.	.
8G/L 8B- 8d	4g/	.	4g/	-szaj
8GG/J	.	.	.	.
=11	=11	=11	=11	=11
4EE-/ 4E-	8c/L 8g 8cc	.	8cc\	Wie-
.	16c/L 16g 16cc	.	16cc\	-dzia-
.	16c/JJ 16g 16cc	.	16cc\	-łem
4AAA/ 4AA	16c#X/KL 16g 16cc#X	.	16cc#X\	że
.	8c#/ 8g 8cc#	.	8cc#\	wró-
.	16c#/Jk 16g 16cc#	.	16cc#\	-cisz
=12	=12	=12	=12	=12
*	*^	*	*	*
8.DD/L 8.D	2dd/	8r	.	2dd\	znów,
.	.	8d\L 8f#X 8cc	.	.	.
16CC/K 16C	.	.	.	.	.
8BBB-/ 8BB-	.	8r	.	.	.
8AAA/J 8AA	.	8d\J 8f# 8cc	.	.	.
*	*v	*v	*	*	*
=13	=13	=13	=13	=13
8GGG/L 8GG	8b-\L 8dd 8gg	.	8gg\	Szep-
8D/J 8G 8B-	8g\J 8b- 8dd	.	8dd\	-czesz
8D/L 8G 8B-	8d/L 8g 8b-	.	8b-\	dziś
!	!LO:TUP:b:problem:klamra łukowa	!	!	!
8GG/J	24g/L	.	24g/	ci-
.	24a/	.	24a/	-chut-
.	24b-/JJ	.	24b-\	-ko
=14	=14	=14	=14	=14
8EE-/L	8g\ 8cc	.	8cc\	„prze-
8E-/J 8G 8c	4.g\ 4.cc	.	4.cc\	-bacz”
8G/L 8c 8e-	.	.	.	.
8EE-/J	.	.	.	.
!!LO:LB:g=original	!	!	!	!
=15	=15	=15	=15	=15
8DD/L	8f#X/L 8a 8dd	.	8dd\	Tak
8D/J 8F#X 8c	8e-/J 8f# 8cc	.	8cc\	mi
8D/L 8F# 8c	8d/L 8f# 8b-	.	8b-\	żal
!	!LO:TUP:a:problem:klamra łukowa	!	!	!
8DD/J	24c/L 24f# 24a	.	24a/	nie-
.	24b-/	.	24b-\	-szcze-
.	24a/JJ	.	24a/	-rych
=16	=16	=16	=16	=16
8EE-/L 8E-	2g/	.	2g/	słów
8G/J 8B- 8e-	.	.	.	.
8G/L 8B- 8e-	.	.	.	.
8BB-/J	.	.	.	.
=17	=17	=17	=17	=17
8CC/L 8C	8g/L	.	8g/	I
8E-/J 8G 8c	8a/J	.	8a/	dziś
8G/L 8c 8e-	8g/L	.	8g/	nie
!	!LO:TUP:a:problem:klamra łukowa	!	!	!
8CC/J 8C	24a/L	.	24a/	wspo-
.	24b-/	.	24b-\	-mi-
.	24a/JJ	.	24a/	-naj
=18	=18	=18	=18	=18
8DD/L 8D	8b-\L	.	8b-\	o
8G/J 8B- 8d	8cc\J	.	8cc\	smut-
8G/L 8B- 8d	8b-\L	.	8b-\	-kach,
!	!LO:TUP:a:problem:klamra łukowa	!	!	!
8DD/J 8D	24b-\L	.	24b-\	nie
.	24cc\	.	24cc\	trze-
.	24b-\JJ	.	24b-\	-ba
=19	=19	=19	=19	=19
*	*^	*	*	*
8EE-/L 8E-	8dd/L	4g\	.	8dd\	Lecz
8G/J 8c 8e-	8cc/J	.	.	8cc\	o
8EEn/L 8En	8b-/L	8c#X\L 8g	.	8b-\	swem
!	!LO:TUP:a:problem:klamra łukowa	!	!	!	!
8DD/J 8D	24a/L	8cn\J 8f#X	.	24a/	ko-
.	24b-/	.	.	24b-\	-cha-
.	24a/JJ	.	.	24a/	-niu
*	*v	*v	*	*	*
!!LO:PB:g=original	!	!	!	!
=20	=20	=20	=20	=20
8GG/ 8G	8B-/ 8d 8g	.	8g/	mów,
(8DD^/L 8D	(8f#X^/L 8cc 8dd	f >	8r	.
16GGG'/Jk) 16GG	16g'/Jk) 16b- 16dd 16gg	] p	16r	.
16r	16d/LL	.	16d/	Czy
8r	16d/	.	16d/	ty
.	16en/JJ	.	16en/	pa-
*kcancel	*kcancel	*	*kcancel	*
=21!|:	=21!|:	=21!|:	=21!|:	=21!|:
*k[f#]	*k[f#]	*	*k[f#]	*
!	!	!	!LO:TX:a:t=REFRAÍN	!
8GG\L	8e/L	p	8e/	-mię-
8D\J 8G 8B	16d/L	f	16d/	-tasz
.	16d/JJ	.	16d/	ma-
8G\L 8B 8d	16b\LL 16dd	.	16dd\	-leń-
.	16b\ 16dd	.	16dd\	-ka
8DD\J	16b\ 16dd	.	16dd\	ka-
.	16a#X\JJ 16cc#X	.	16cc#X\	-wia-
=22	=22	=22	=22	=22
8FF#/L	8an\L 8ccn	.	8cc\	-ren-
8D/J 8F# 8c	[8a\J [8cc	.	[8cc\	-kę
8F#/L 8c 8d	16a/LL] 16cc]	.	16cc\]	.
.	16d/	.	16d/	I
8DD/J	16d/	.	16d/	te
.	16e/JJ	.	16e/	naj-
=23	=23	=23	=23	=23
8AA/L	8e/L	.	8e/	-czul-
8D/J 8F# 8c	16d/L	.	16d/	-sze
.	16d/JJ	.	16d/	w niej
8F#/L 8c 8d	16f#/LL 16dd	.	16dd\	na-
.	16f#/ 16dd	.	16dd\	-sze
8DD/J	16f#/ 16dd	.	16dd\	sam
.	16e/JJ 16cc	.	16cc\	na
!!LO:LB:g=original	!	!	!	!
=24	=24	=24	=24	=24
8GG/L	[4d/ [4b	.	[4b\	sam
8D/J 8G 8B	.	.	.	.
8D/L 8G 8B	16d/LL] 16b]	.	16b\]	.
.	16d/	.	16d/	Czy
8GG/J	16d/	.	16d/	ty
.	16e/JJ	.	16e/	pa-
=25	=25	=25	=25	=25
8BB/L	8e/L	.	8e/	-mię-
8D/J 8G 8B	16d/L	.	16d/	-tasz
.	16d/JJ	.	16d/	prze-
8EE/L	16e/LL 16g#X 16cc	.	16cc\	-brzmia-
.	16e/ 16g# 16cc	.	16cc\	-łą
8E/J 8G#X 8d	16e/ 16g# 16cc	.	16cc\	dziś
.	16d/JJ 16g# 16b	.	16b\	pio-
=26	=26	=26	=26	=26
8AA/L	8c/L 8e 8a	.	8a/	-sen-
8E/J 8A	[8c/J [8e [8a	.	[8a/	-kę,
8E\ 8A	16c/LL] 16e] 16a]	.	16a/]	.
.	16d/	.	16d/	Co
8r	16d/	.	16d/	nie-
.	16e/JJ	.	16e/	-gdyś
=27	=27	=27	=27	=27
8DD/L	8e/L	.	8e/	ty-
8D/J 8F# 8c	16d/L	.	16d/	-le
.	16d/JJ	.	16d/	u-
8D/L 8F# 8c	16d/LL 16f# 16b	.	16b\	-po-
.	16d/ 16f# 16b	.	16b\	-jeń
8DD/J	16d/ 16f# 16b	.	16b\	da-
.	16c/JJ 16f# 16a	.	16a/	-ła
=28	=28	=28	=28	=28
8GG/L 8G	4B/ 4d 4g	.	4g/	nam,
8DD/ 8D	.	.	.	.
8GGG/J 8GG	16r	.	16r	.
.	16g/LL	.	16g/	Gdy
8r	16g/	.	16g/	roz-
.	16g/JJ	.	16g/	-ko-
=29	=29	=29	=29	=29
8BB\L	8g/L	.	8g/	-cha-
8A\J 8B 8d#X	16f#/L	.	16f#/	-ny
.	16f#/JJ	.	16f#/	to-
8A\L 8B 8d#	16f#/LL	.	16f#/	-ną-
.	16g/	.	16g/	-łem
8BB\J	16a/	.	16a/	w twych
.	16b/JJ	.	16b\	o-
=30	=30	=30	=30	=30
8EE/L 8E	8g/L	.	8g/	-czę-
8E/J 8G 8B	[8e/J	.	[8e/	-tach,
8E/L 8G 8B	16e/LL]	.	16e/]	.
.	16b/	.	16b\	W je-
8EE/J	16b/	.	16b\	-sien-
.	16b/JJ	.	16b\	-ne
=31	=31	=31	=31	=31
8AA/L	8.b/L	.	8.b\	zmierz-
8G/J 8A 8c#X	.	.	.	.
.	16e/Jk	.	16e/	-chy
8G/L 8A 8c#	16d#X/LL	.	16d#X/	i
.	16e/	.	16e/	wio-
8AA/J	16f#/	.	16f#/	-sen-
.	16g/JJ	.	16g/	-ne
!!LO:LB:g=original	!	!	!	!
=32	=32	=32	=32	=32
*^	*^	*	*	*
8r	4.DD\	4a/	8r	.	4a/	dni,
(<8G^</L	.	.	(>8c^>\L 8e	.	.	.
8F#'</J)	.	16r	8c'>\J) 8d	.	16r	.
.	.	16d/LL	.	.	16d/	A
8r	8DD\	16d/	8r	.	16d/	ty
.	.	16e/JJ	.	.	16e/	szczę-
*v	*v	*	*	*	*	*
*	*v	*v	*	*	*
=33	=33	=33	=33	=33
8GG/L	8e/L	.	8e/	-śli-
8D/J 8G 8B	16d/L	.	16d/	-wa,
.	16d/JJ	.	16d/	ra-
8G/L 8B 8d	16b\LL 16dd	.	16dd\	-do-
.	16b\ 16dd	.	16dd\	-sna,
8BB/J	16b\ 16dd	.	16dd\	uś-
.	16a#X\JJ 16cc#X	.	16cc#X\	-miech-
=34	=34	=34	=34	=34
8AA/L	8an\L 8ccn	.	8ccn\	-nię-
8D/J 8F# 8c	[8a\J [8cc	.	[8cc\	-ta,
8F#/L 8c 8d	16a/LL] 16cc]	.	16cc\]	.
.	16d/	.	16d/	O
8DD/J	16d/	.	16d/	swej
.	16e/JJ	.	16e/	mi-
=35	=35	=35	=35	=35
8AA/L	8e/L	.	8e/	-łoś-
8D/J 8F# 8c	8d/J	.	8d/	-ci
8F#/L 8c 8d	16f#/LL 16dd	.	16dd\	drżąc
.	16f#/ 16dd	.	16dd\	szep-
8DD/J	16f#/ 16dd	.	16dd\	-ta-
.	16e/JJ 16cc	.	16cc\	-łaś
=36	=36	=36	=36	=36
8GG/L	4d/ 4b	.	4b\	mi
8D/J 8G 8B	.	.	.	.
8G\ 8B 8d	16r	.	16r	.
.	16d/LL	.	16d/	Czy
8r	16d/	.	16d/	ty
.	16e/JJ	.	16e/	pa-
!!LO:LB:g=original	!	!	!	!
=37	=37	=37	=37	=37
8GG#X/L	8e/L	.	8e/	-mię-
8E/J 8G#X 8d	16e/L	.	16e/	-tasz
.	16e/JJ	.	16e/	ma-
8G#/L 8d 8e	16g#X\LL 16ee	.	16ee\	-leń-
.	16g#\ 16ee	.	16ee\	-ką
8EE/J	16fn\ 16dd	.	16dd\	ka-
.	16g#\JJ 16ee	.	16ee\	-wia-
=38	=38	=38	=38	=38
8AA/L	8e/L 8a 8dd	.	8dd\	-ren-
8E/J 8A 8c	[8e/J [8a [8cc	.	[8cc\	-kę
8E/L 8A 8c	16e/LL] 16a] 16cc]	.	16cc\]	.
.	16e/	.	16e/	I
8AA/J	16e/	.	16e/	tę
.	16e/JJ	.	16e/	pio-
=39	=39	=39	=39	=39
8DD/L	8f#/L	.	8f#/	-sen-
8D/J 8F# 8c	[8f#/J	.	[8f#/	-kę
8D/L 8F# 8c	16f#/LL]	.	16f#/]	.
.	16d/	.	16d/	co
8DD/J	16d/	.	16d/	w ser-
.	16c/JJ 16f# 16b	.	16b\	-cach
=40||	=40||	=40||	=40||	=40||
*>A1	*>A1	*>A1	*>A1	*>A1
8GG/ 8G	8B/ 8d 8g	.	8g/	brzmi.
(8DD^/L 8D	(8f#^/L 8cc 8dd	f >	8r	.
16GGG'/Jk) 16GG	16g'/Jk) 16b 16dd 16gg	] p	16r	.
16r	16d/LL	.	16d/	Czy
8r	16d/	.	16d/	ty
.	16e/JJ	.	16e/	pa
=41:|!	=41:|!	=41:|!	=41:|!	=41:|!
*>A2	*>A2	*>A2	*>A2	*>A2
8GG/ 8G	8B/ 8d 8g	.	8g/	brzmi.
(8DD^/L 8D	(8f#^/L 8cc 8dd	f >	8r	.
16GGG'/Jk) 16GG	16g'/Jk) 16b 16dd 16gg	] p	4r	.
16r	16r	.	.	.
8r	8r	.	.	.
==	==	==	==	==
*-	*-	*-	*-	*-
!!!system-decoration: s1{(s2,s3)}
!!!RDF**kern: > = above
!!!RDF**kern: < = below
!!!ENC: Filip Voros
!!!END: 2023-08-25
!!!ENC: Jan Barakat
!!!END: 2023-09-16
